svg/fluentui-system-icons/ic_fluent_person_available_24_filled.svg

<svg width="24" height="24" viewBox="0 0 24 24" fill="none" xmlns="http://www.w3.org/2000/svg">
<path d="M17.5004 12.0003C20.5379 12.0003 23.0004 14.4627 23.0004 17.5003C23.0004 20.5378 20.5379 23.0003 17.5004 23.0003C14.4628 23.0003 12.0004 20.5378 12.0004 17.5003C12.0004 14.4627 14.4628 12.0003 17.5004 12.0003ZM12.0226 13.9996C11.3755 15.01 11.0004 16.2113 11.0004 17.5003C11.0004 19.1306 11.6006 20.6207 12.5921 21.7618C11.7966 21.9219 10.9317 22.0013 10.0004 22.0013C6.5794 22.0013 4.05643 20.9292 2.51427 18.7648C2.18231 18.2989 2.00391 17.7411 2.00391 17.169V16.2491C2.00391 15.007 3.01076 14.0002 4.25278 14.0002L12.0226 13.9996ZM14.8539 17.1467C14.6587 16.9514 14.3421 16.9514 14.1468 17.1467C13.9515 17.342 13.9515 17.6586 14.1468 17.8538L16.1468 19.8538C16.3421 20.0491 16.6587 20.0491 16.8539 19.8538L20.8539 15.8538C21.0492 15.6586 21.0492 15.342 20.8539 15.1467C20.6587 14.9514 20.3421 14.9514 20.1468 15.1467L16.5004 18.7931L14.8539 17.1467ZM10.0004 2.00488C12.7618 2.00488 15.0004 4.24346 15.0004 7.00488C15.0004 9.76631 12.7618 12.0049 10.0004 12.0049C7.23894 12.0049 5.00036 9.76631 5.00036 7.00488C5.00036 4.24346 7.23894 2.00488 10.0004 2.00488Z" fill="#212121"/>
</svg>

<svg xmlns="http://www.w3.org/2000/svg" width="24" height="24"><path d="M17.5 12a5.5 5.5 0 1 1 0 11 5.5 5.5 0 0 1 0-11Zm-5.477 2A6.47 6.47 0 0 0 11 17.5c0 1.63.6 3.12 1.592 4.262-.795.16-1.66.24-2.592.24-3.42 0-5.944-1.073-7.486-3.237a2.75 2.75 0 0 1-.51-1.596v-.92A2.249 2.249 0 0 1 4.253 14h7.77Zm2.83 3.147a.5.5 0 1 0-.706.707l2 2a.5.5 0 0 0 .707 0l4-4a.5.5 0 1 0-.707-.707L16.5 18.793l-1.646-1.646ZM10 2.005a5 5 0 1 1 0 10 5 5 0 0 1 0-10Z"/></svg>
